!!!OTL: Der junge Held Ach got, wie ser zwingt mich die not
!!!ARE: Europa, Mitteleuropa, Deutschland
!!!YOR: 3, S. 152
!!    1480 Handschrift aus Glogau
!!!SCT: Q1060F
!!!YEM: Copyright 1995, estate of Helmut Schaffrath.
**kern
*ICvox
*Ivox
*M6/4
*k[b-]
*d:
{4d
=1
2fn
4g
4a
2ccn
=2
4b
2a
2g}
{4g
=3
2b
4ccn
4dd
2ee
=4
2dd
4ccn
4a
2b
=5
2a
2.r}
{4dd
=6
2ccn
4a
2g
4b-
=7
2a
4a
2d
4fn
=8
4e
2d
2cn}
{4cn
=9
2fn
4g
4a
4.ccn
8b-
=10
4a
4.g
8fn
4d
2e
=11
2d
2.r}
==
!!!AGN: ???
!! Melodievergleich mit Q0060A, anderes Lied.
!!    Pausen am Ende der 2. und 4. Zeile ergaenzt.
!!!ONB: ESAC (Essen Associative Code) Database: BALLADE
!!!AMT: compound duple
!!!AIN: vox
!!!EED: Helmut Schaffrath
!!!EEV: 1.0
*-
